remix/Business/send-plane-2-line.svg

<svg viewBox="0 0 24 24" fill="currentColor" xmlns="http://www.w3.org/2000/svg"><path d="M3.5 1.34558C3.58425 1.34558 3.66714 1.36687 3.74096 1.40747L22.2034 11.5618C22.4454 11.6949 22.5337 11.9989 22.4006 12.2409C22.3549 12.324 22.2865 12.3924 22.2034 12.4381L3.74096 22.5924C3.499 22.7255 3.19497 22.6372 3.06189 22.3953C3.02129 22.3214 3 22.2386 3 22.1543V1.84558C3 1.56944 3.22386 1.34558 3.5 1.34558ZM5 4.38249V10.9999H10V12.9999H5V19.6174L18.8499 11.9999L5 4.38249Z"/></svg>

<svg viewBox="0 0 24 24" xmlns="http://www.w3.org/2000/svg"><path fill="none" d="M0 0h24v24H0Z"/><path d="M3.741 1.4l18.46 10.154v0c.24.13.33.43.19.67 -.05.08-.12.15-.2.19L3.72 22.56h0c-.25.13-.55.04-.68-.2 -.05-.08-.07-.16-.07-.25V1.8v0c0-.28.22-.5.5-.5 .08 0 .16.02.24.06ZM5 12.99v6.61l13.85-7.62L5 4.36v6.61h5v2H5Z"/></svg>
